src/assets/set.svg

<?xml version="1.0" encoding="UTF-8" standalone="no"?>
<svg
   xmlns:dc="http://purl.org/dc/elements/1.1/"
   xmlns:cc="http://creativecommons.org/ns#"
   xmlns:rdf="http://www.w3.org/1999/02/22-rdf-syntax-ns#"
   xmlns:svg="http://www.w3.org/2000/svg"
   xmlns="http://www.w3.org/2000/svg"
   width="24mm"
   height="24.027294mm"
   viewBox="0 0 24 24.027294"
   version="1.1"
   id="svg919">
  <defs
     id="defs913" />
  <metadata
     id="metadata916">
    <rdf:RDF>
      <cc:Work
         rdf:about="">
        <dc:format>image/svg+xml</dc:format>
        <dc:type
           rdf:resource="http://purl.org/dc/dcmitype/StillImage" />
        <dc:title></dc:title>
      </cc:Work>
    </rdf:RDF>
  </metadata>
  <path
     style="fill:#000000;stroke-width:0.0361923;stroke:#de8787"
     d="M 7.4199504,20.243498 C 4.4284704,19.905817 1.7798814,17.887706 0.65915312,15.092063 -0.36599488,12.534838 -0.07213688,9.6199073 1.4399514,7.3469213 2.8074424,5.2912965 5.0281084,3.941845 7.4818604,3.675381 7.9328094,3.6264105 8.8252824,3.6264105 9.2762294,3.675381 12.029495,3.9743707 14.468597,5.6361807 15.754057,8.0888633 17.279595,10.999612 16.945502,14.557702 14.90315,17.151034 14.601401,17.534187 13.800868,18.314615 13.409767,18.606911 12.183366,19.523485 10.767121,20.085582 9.2762294,20.247485 8.8631824,20.29234 7.8330264,20.290128 7.4199504,20.243498 Z M 9.3254054,18.853722 C 10.812701,18.64628 11.498387,18.036786 11.498387,18.036786 8.6172813,16.67999 6.0739295,7.8444035 11.4994,5.8462884 10.626506,5.2105616 10.793242,5.3575919 9.7420224,5.1362056 9.1391324,5.0092374 8.0909574,4.9764275 7.4599824,5.0647733 4.2793874,5.5101035 1.8636204,7.9692513 1.4681004,11.164255 1.4193634,11.557946 1.4193634,12.36492 1.4681004,12.758611 1.6319064,14.081828 2.1546064,15.323334 2.9762314,16.340695 3.2336194,16.659399 3.8177524,17.231736 4.1264574,17.46769 5.0917464,18.205499 6.2137354,18.680866 7.3923254,18.85138 7.8817744,18.922192 8.8262934,18.923337 9.3254054,18.853722 Z"
     id="path837" />
  <path
     id="path1508"
     d="M 14.671618,20.246348 C 11.680138,19.908667 9.0315488,17.890556 7.9108208,15.094913 6.8856728,12.537688 7.1795308,9.622757 8.6916188,7.349771 10.05911,5.2941462 12.279776,3.9446947 14.733528,3.6782307 15.184477,3.6292602 16.07695,3.6292602 16.527897,3.6782307 19.281163,3.9772204 21.720265,5.6390304 23.005725,8.091713 24.531263,11.002462 24.19717,14.560552 22.154818,17.153884 21.853069,17.537037 21.052536,18.317465 20.661435,18.609761 19.435034,19.526335 18.018789,20.088432 16.527897,20.250335 16.11485,20.29519 15.084694,20.292978 14.671618,20.246348 Z M 16.577073,18.856572 C 18.064369,18.64913 19.374963,18.01211 20.439617,16.979162 20.888708,16.543446 21.159628,16.219006 21.456612,15.761256 21.967711,14.973483 22.313547,14.08814 22.494467,13.104339 22.568911,12.699526 22.597758,11.700598 22.548078,11.247842 22.414582,10.031249 21.989543,8.908825 21.284389,7.910751 20.996794,7.503688 20.177405,6.666044 19.792821,6.385952 18.919927,5.7502252 18.04491,5.3604416 16.99369,5.1390553 16.3908,5.0120871 15.342625,4.9792772 14.71165,5.067623 11.531055,5.5129532 9.1152878,7.972101 8.7197678,11.167105 8.6710308,11.560796 8.6710308,12.36777 8.7197678,12.761461 8.8835738,14.084678 9.4062738,15.326184 10.227899,16.343545 10.485287,16.662249 11.06942,17.234586 11.378125,17.47054 12.343414,18.208349 13.465403,18.683716 14.643993,18.85423 15.133442,18.925042 16.077961,18.926187 16.577073,18.856572 Z"
     style="fill:#000000;stroke-width:0.0361923" />
</svg>

<svg xmlns="http://www.w3.org/2000/svg" width="24mm" height="90.812" viewBox="0 0 24 24.027"><path style="fill:#6b6b6b;stroke-width:.0361923;stroke:none;fill-opacity:1" d="M7.42 20.243c-2.992-.337-5.64-2.355-6.76-5.15-1.026-2.558-.732-5.473.78-7.746a8.353 8.353 0 0 1 6.042-3.672c.45-.049 1.343-.049 1.794 0a8.347 8.347 0 0 1 6.478 4.414 8.381 8.381 0 0 1-.85 9.062c-.303.383-1.103 1.164-1.494 1.456a8.4 8.4 0 0 1-4.134 1.64c-.413.045-1.443.043-1.856-.004zm1.905-1.39c1.488-.207 2.173-.816 2.173-.816-2.88-1.357-5.424-10.193.001-12.19-.872-.636-.706-.49-1.757-.71-.603-.128-1.651-.16-2.282-.072-3.18.445-5.596 2.904-5.992 6.1a8.711 8.711 0 0 0 0 1.594 7.081 7.081 0 0 0 1.508 3.582c.258.318.842.89 1.15 1.127a7.038 7.038 0 0 0 3.266 1.383c.49.071 1.434.072 1.933.003z"/><path d="M14.672 20.246c-2.992-.337-5.64-2.355-6.761-5.151-1.025-2.557-.731-5.472.78-7.745a8.353 8.353 0 0 1 6.043-3.672c.45-.049 1.343-.049 1.794 0a8.347 8.347 0 0 1 6.478 4.414 8.381 8.381 0 0 1-.851 9.062c-.302.383-1.102 1.163-1.494 1.456a8.4 8.4 0 0 1-4.133 1.64c-.413.045-1.443.043-1.856-.004zm1.905-1.39a6.804 6.804 0 0 0 3.863-1.877c.449-.436.72-.76 1.017-1.218a7.228 7.228 0 0 0 1.037-2.657c.075-.404.104-1.403.054-1.856a7.05 7.05 0 0 0-1.264-3.337c-.287-.407-1.107-1.245-1.491-1.525a7.024 7.024 0 0 0-2.8-1.247c-.602-.127-1.65-.16-2.281-.071-3.18.445-5.597 2.904-5.992 6.1a8.711 8.711 0 0 0 0 1.593 7.081 7.081 0 0 0 1.508 3.583c.257.318.841.89 1.15 1.127a7.038 7.038 0 0 0 3.266 1.383c.49.071 1.434.072 1.933.003z" style="fill:#6b6b6b;stroke-width:.0361923;stroke:none;fill-opacity:1"/></svg>
